!!!OTL: 181. Sher
!!!Genre:	Sher
!!!Mode:	Freygish
!!!Listening/dance:	dance
!!!One_Mode:	no
**kern
*thru
*I"P1
*clefG2
*k[b-e-a-]
*F:
!LO:TX:a:i:t=F-major
24gLL
24a
24gJJ
=41
8fL
8aJ
[4cc
=42
8ccL]
16ddL
16ccJJ
8b-L
8aJ
=43
(16aLL
16ccJ)
8ccJ
[4a
=44
8aL]
24aL
24b-
24aJJ
8gL
8fJ
=45
8aL
8b-
8cc
8ddJ
=46
8ee-L
8dd
8cc
8bnJ
=47
(8qdd/
4.cc)
8a
=48
8b-XL
8a
8g
8fJ
!!!End-Modulation
*F:
=41
!LO:TX:a:i:t=F-major
8fL
8aJ
[4cc
=42
8ccL]
16ddL
16ccJJ
8b-L
8aJ
=43
(16aLL
16ccJ)
8ccJ
[4a
=44
8aL]
24aL
24b-
24aJJ
8gL
8fJ
=45
8aL
8b-
8cc
8ddJ
=46
8ee-L
8dd
8cc
8bnJ
=47
(8qdd/
4.cc)
8a
=48
8b-XL
8a
8g
8fJ
!!!End-Modulation
*-
